X:1
T:Lerchengesang
T:Lerchengesang
T:Felix Mendelssohn-Bartholdy
T:G.K. Vancil 2002
T:G.K. Vancil 2002
T:G.K. Vancil 2002
T:G.K. Vancil 2002
T:G.K. Vancil 2002
T:G.K. Vancil 2002
C:Felix Mendelssohn-Bartholdy
Z:G.K. Vancil 2002
%%score [ 1 2 3 4 ]
L:1/8
Q:1/4=120
M:4/4
K:G
V:1 treble nm="Soprano" snm="S"
V:2 treble nm="Alto" snm="A"
V:3 treble-8 nm="Tenor" snm="T"
V:4 bass nm="Bass" snm="B"
V:1
!f!"^Allegro Vivace" d | d2 Bc d2 z d | (dg)Bc d2 z d | e2 dB e2 dB | (A3 d) d2 z A | A2 Bc d3 B | %6
w: Wie|lieb- li- cher Klang, o|Ler- * che, dein Sang! Er|hebt sich, er schwingt sich in|Won- * ne! Du|nimmst mich von hier, ich|
!f! B2 cd e2 g2 | e2 de c2 Bc | A4 G2 g2 | e2 de c2 Bc | A4 G2 z2 |!f! z2 z G (GD)GB | %12
w: sin- ge mit dir, wir|stei- gen durch Wol- ken zur|Son- ne, wir|stei- gen durch Wol- ken zur|Son- ne!|Wie lieb- * li- cher|
 d3 d (dG)Bd | g4 g4 | f2- (3fed d2 z d | d2 dd d3 =f | =f2 ed c4 | z2 G2 A2 BG | (cedc Bd) g2 | %19
w: Klang, o Ler- * che, dein|Sang, o|Won- * * * ne! Du|nimmst mich von hier, ich|sin- ge mit dir,|wir stei- gen durch|Wol- * * * * * ken,|
 z2 G2 A2 BG |!f! (cedc BGB)d | d2 Bc d2 z d | (dg)Bc d2 z d | e2 dB e2 dB | (A3 d) d2 z A | %25
w: durch Wol- ken zur|Son- * * * * * ne! Wie|lieb- li- cher Klang, o|Ler- * che, dein Sang! Er|hebt sich, er schwingt sich in|Won- * ne! Du|
 A2 Bc d3 B |!f! B2 cd e2 g2 | e2 de c2 Bc | A4 G2 g2 | e2 de c2 Bc |!f! A4 G2 z d | %31
w: nimmst mich von hier, ich|sin- ge mit dir, wir|stei- gen durch Wol- ken zur|Son- ne, wir|stei- gen durch Wol- ken zur|Son- ne, zur|
!f! !fermata!d4 !fermata!B2 z e | !fermata!e4 c4- |!f! !fermata!c2 z e (dG)Bd | g8 | d7 d | %36
w: Son- ne! zur|Son- ne!|* wir stei- * gen durch|Wol-|ken zur|
 (d4 c2 A2) | !fermata!G8 |] %38
w: Son- * *|ne!|
V:2
!f! B | B2 GA B2 z B | B2 GA B2 z B | c2 BG c2 BG | D4 F2 z F | F2 GA B3 G |!f! G2 AB c2 e2 | %7
w: Wie|lieb- li- cher Klang, o|Ler- che, dein Sang! Er|hebt sich, er schwingt sich in|Won- ne! Du|nimmst mich von hier, ich|sin- ge mit dir, wir|
 c2 Bc A2 GA | F4 G2 e2 | c2 Bc A2 GA | D4 G2 z2 |!f! z2 z G G2 GG | G3 G G2 GG | G3 G (GA)Bc | %14
w: stei- gen durch Wol- ken zur|Son- ne, wir|stei- gen durch Wol- ken zur|Son- ne!|Wie lieb- li- cher|Klang, o Ler- che, dein|Sang! Er schwingt * sich in|
 d4 D2 z c | c2 BA G3 G | G2 GG C4 | z2 G2 F2 GG | D4 G4 | z2 G2 F2 GG |!f! (F4 GDG)B | %21
w: Won- ne! Du|nimmst mich von hier, ich|sin- ge mit dir,|wir stei- gen durch|Wol- ken,|durch Wol- ken zur|Son- * * ne! Wie|
 B2 GA B2 z B | B2 GA B2 z B | c2 BG c2 BG | D4 F2 z F | F2 GA B3 G |!f! G2 AB c2 e2 | %27
w: lieb- li- cher Klang, *|Ler- che, dein Sang! Er|hebt sich, er schwingt sich in|Won- ne! Du|nimmst mich von hier, ich|sin- ge mit dir, wir|
 c2 Bc A2 GA | F4 G2 e2 | c2 Bc A2 GA |!f! D4 G2 z B |!f! !fermata!B4 !fermata!G2 z c | %32
w: stei- gen durch Wol- ken zur|Son- ne, wir|stei- gen durch Wol- ken zur|Son- ne, zur|Son- ne! zur|
 !fermata!c4 G4- | !fermata!G2 z2 x4 |!f! z2 z G (GB,)DG | B4 B3 G | (B4 A2 F2) | !fermata!G8 |] %38
w: Son- ne!||wir stei- * gen durch|Wol- ken zur|Son- * *|ne!|
V:3
 z | z8 | z8 | z8 | z8 | z8 | z8 | z8 | z8 | z8 |!f! z4 z2 z d | d2 Bc d2 z d | (dg)Bc d2 z d | %13
w: ||||||||||Wie|lieb- li- cher Klang, o|Ler- * che, dein Sang! Er|
 e2 dB e2 dB | (A3 d) d2 z A | A2 Bc d3 B |!f! B2 cd e2 g2 | e2 de c2 Bc | A4 G2 g2 | e2 de c2 Bc | %20
w: hebt sich, er schwingt sich in|Won- * ne! Du|nimmst mich von hier, ich|sin- ge mit dir, wir|stei- gen durch Wol- ken zur|Son- ne, wir|stei- gen durch Wol- ken zur|
 A4 G2 z2 |!f! z2 z G (GD)GB | d3 d (dG)Bd | g4 g4 | f2- (3fed d2 z d | d2 dd d3 =f | =f2 ed c4 | %27
w: Son- ne!|Wie lieb- * li- cher|Klang, o Ler- * che, dein|Sang! o|Won- * * * ne! Du|nimmst mich von hier, ich|sin- ge mit dir,|
 z2 G2 A2 BG | (cedc Bd) g2 | z2 G2 A2 BG |!f! (cedc BG)Bd |!f! !fermata!d4 !fermata!G2 z g | %32
w: wir stei- gen durch|Wol- * * * * * ken,|durch Wol- ken zur|Son- * * * * * ne, zur|Son- ne! zur|
 !fermata!g4 e4- | !fermata!e2 z2 z4 |!f! z2 z d (dG)Bd | g4 d3 d | (d6 c2) | !fermata!B8 |] %38
w: Son- ne!||wir stei- * gen durch|Wol- ken zur|Son- *|ne!|
V:4
 z | z8 | z8 | z8 | z8 | z8 | z8 | z8 | z8 | z8 |!f! z4 z2 z B, | B,2 G,A, B,2 z B, | %12
w: ||||||||||Wie|lieb- li- cher Klang, o|
 B,2 G,A, B,2 z B, | C2 B,G, C2 B,G, | D,4 F,2 z F, | F,2 G,A, B,3 G, |!f! G,2 A,B, C2 E2 | %17
w: Ler- che, dein Sang! Er|hebt sich, er schwingt sich in|Won- ne! Du|nimmst mich von hier, ich|sin- ge mit dir, wir|
 C2 B,C A,2 G,A, | F,4 G,2 E2 | C2 B,C A,2 G,A, | D,4 G,2 z2 |!f! z2 z G, G,2 G,G, | %22
w: stei- gen durch Wol- ken zur|Son- ne, wir|stei- gen durch Wol- ken zur|Son- ne!|Wie lieb- li- cher|
 G,3 G, G,2 G,G, | G,3 G, (G,A,)B,C | D4 D,2 z C | C2 B,A, G,3 G, | G,2 G,G, C,4 | %27
w: Klang, o Ler- che, dein|Sang, er schwingt * sich in|Won- ne! Du|nimmst mich von hier, ich|sin- ge mit dir,|
 z2 G,2 F,2 G,G, | D,4 G,4 | z2 G,2 F,2 G,G, |!f! (F,4 G,D,)G,G, | %31
w: wir stei- gen durch|Wol- ken,|durch Wol- ken zur|Son- * * ne, zur|
!f! !fermata!G,4 !fermata!G,,2 z C | !fermata!C4 C,4- | !fermata!C,2 z2 z4 | z8 | %35
w: Son- ne! zur|Son- ne!|||
!f! z2 z G, (G,D,)G,B, | (D4 D,4) | !fermata!G,8 |] %38
w: durch Wol- * ken zur|Son- *|ne!|

